www/assets/icons/label_off.svg

<svg width="24" height="24" viewBox="0 0 24 24" xmlns="http://www.w3.org/2000/svg" fill='currentColor'><path d="M3.25 2.875L20.25 19.875L19 21.125L17 19.125H5C3.9 19.125 3 18.225 3 17.125V7.125C3 6.575 3.23 6.075 3.59 5.715L2 4.125L3.25 2.875ZM22 12.125L17.63 5.965C17.27 5.455 16.67 5.125 16 5.125H8L19 16.125L22 12.125Z"/></svg>

<svg xmlns="http://www.w3.org/2000/svg" width="24" height="24" viewBox="0 0 24 24" fill='currentColor'><path d="m3.25 2.875 17 17-1.25 1.25-2-2H5c-1.1 0-2-.9-2-2v-10c0-.55.23-1.05.59-1.41L2 4.125zM22 12.125l-4.37-6.16c-.36-.51-.96-.84-1.63-.84H8l11 11z"/></svg>
